app/images/stats_car_transmission.svg

<svg width="76" height="76" viewBox="0 0 76 76" fill="none" xmlns="http://www.w3.org/2000/svg">
<path d="M64.9679 31.871H41.6776V29.4194H43.5971L49.6674 19.3017C50.8549 17.3217 51.484 15.0538 51.484 12.7447C51.484 5.71724 45.7668 0 38.7393 0H37.2621C30.2335 0 24.5163 5.71724 24.5163 12.7447C24.5163 15.0538 25.1453 17.3217 26.3316 19.3029L32.4032 29.4194H34.3227V31.871H11.0324C9.00515 31.871 7.35498 33.5211 7.35498 35.5484V72.3226C7.35498 74.3498 9.00515 76 11.0324 76H64.9679C66.9951 76 68.6453 74.3498 68.6453 72.3226V35.5484C68.6453 33.5211 66.9951 31.871 64.9679 31.871ZM44.1292 73.5484H39.2259V61.2903H46.5808V53.9355H51.484V44.129H41.6776V39.2258H61.2905V51.4839H56.3872V58.8387H51.484V66.1935H44.1292V73.5484ZM49.0324 12.7447C49.0324 13.5671 48.9169 14.3787 48.7247 15.1706C44.5254 13.5437 41.6776 9.47905 41.6776 4.90323V2.88436C45.9248 4.15326 49.0324 8.09044 49.0324 12.7447ZM34.3227 2.88436V4.90323C34.3227 9.47905 31.4749 13.5437 27.2755 15.1706C27.0834 14.3787 26.9679 13.5671 26.9679 12.7447C26.9679 8.09044 30.0755 4.15326 34.3227 2.88436ZM28.4337 18.0411C28.3224 17.855 28.2392 17.6563 28.1398 17.4653C33.2855 15.4794 36.7743 10.5049 36.7743 4.90323V2.47615C36.9371 2.46897 37.0969 2.45161 37.2609 2.45161H38.7381C38.9033 2.45161 39.0631 2.46897 39.2259 2.47615V4.90323C39.2259 10.5049 42.7148 15.4794 47.8605 17.4642C47.7611 17.6551 47.6779 17.8538 47.5666 18.0399L42.2097 26.9677H33.7918L28.4337 18.0411ZM39.2259 29.4194V44.129H36.7743V29.4194H39.2259ZM34.3227 44.129H29.4195V39.2258H34.3227V44.129ZM9.80659 72.3226V35.5484C9.80659 34.8732 10.3561 34.3226 11.0324 34.3226H34.3227V36.7742H26.9679V46.5806H49.0324V51.4839H44.1292V58.8387H36.7743V73.5484H11.0324C10.3561 73.5484 9.80659 72.9989 9.80659 72.3226ZM66.1937 72.3226C66.1937 72.9989 65.6442 73.5484 64.9679 73.5484H46.5808V68.6452H53.9356V61.2903H58.8388V53.9355H63.7421V36.7742H41.6776V34.3226H64.9679C65.6442 34.3226 66.1937 34.8732 66.1937 35.5484V72.3226Z" fill="white"/>
<path d="M12.2581 46.5809H24.5161V36.7744H12.2581V46.5809ZM14.7097 39.226H22.0645V44.1293H14.7097V39.226Z" fill="white"/>
<path d="M12.2581 71.0967H22.0645V49.0322H12.2581V71.0967ZM14.7097 68.6451V66.1935H19.6129V68.6451H14.7097ZM19.6129 61.2903V63.7419H14.7097V61.2903H19.6129ZM14.7097 58.8387V56.3871H19.6129V58.8387H14.7097ZM19.6129 51.4838V53.9355H14.7097V51.4838H19.6129Z" fill="white"/>
</svg>

<svg width="76" height="76" fill="none" xmlns="http://www.w3.org/2000/svg"><path d="M64.968 31.871h-23.29v-2.452h1.92l6.07-10.117a12.754 12.754 0 001.816-6.557C51.484 5.717 45.767 0 38.739 0h-1.477c-7.029 0-12.746 5.717-12.746 12.745 0 2.309.63 4.577 1.816 6.558l6.071 10.116h1.92v2.452h-23.29a3.682 3.682 0 00-3.678 3.677v36.775A3.682 3.682 0 0011.032 76h53.936a3.682 3.682 0 003.677-3.677V35.548a3.682 3.682 0 00-3.677-3.677zM44.129 73.548h-4.903V61.29h7.355v-7.355h4.903V44.13h-9.806v-4.903H61.29v12.258h-4.904v7.355h-4.903v7.355h-7.355v7.354zm4.903-60.803c0 .822-.115 1.634-.307 2.426-4.2-1.627-7.047-5.692-7.047-10.268V2.884c4.247 1.27 7.354 5.206 7.354 9.86zm-14.71-9.86v2.018c0 4.576-2.847 8.64-7.047 10.268a10.289 10.289 0 01-.307-2.426c0-4.655 3.108-8.592 7.355-9.86zM28.435 18.04c-.112-.186-.195-.385-.294-.576 5.145-1.986 8.634-6.96 8.634-12.562V2.476c.163-.007.323-.024.487-.024h1.477c.165 0 .325.017.488.024v2.427c0 5.602 3.489 10.576 8.635 12.561-.1.191-.183.39-.294.576l-5.357 8.928h-8.418l-5.358-8.927zm10.791 11.38v14.71h-2.452V29.42h2.452zm-4.903 14.71h-4.904v-4.903h4.904v4.903zM9.807 72.323V35.548c0-.675.55-1.225 1.225-1.225h23.29v2.451h-7.354v9.807h22.064v4.903H44.13v7.355h-7.355v14.71H11.032c-.676 0-1.225-.55-1.225-1.226zm56.387 0c0 .676-.55 1.225-1.226 1.225H46.58v-4.903h7.355V61.29h4.903v-7.355h4.903v-17.16H41.678v-2.452h23.29c.676 0 1.226.55 1.226 1.225v36.775z" fill="#fff"/><path d="M12.258 46.58h12.258v-9.806H12.258v9.807zm2.452-7.354h7.354v4.903H14.71v-4.903zm-2.452 31.871h9.806V49.032h-9.806v22.065zm2.452-2.452v-2.451h4.903v2.451H14.71zm4.903-7.355v2.452H14.71V61.29h4.903zm-4.903-2.45v-2.452h4.903v2.452H14.71zm4.903-7.355v2.451H14.71v-2.451h4.903z" fill="#fff"/></svg>
